images/fnt.svg

<svg height="250" viewBox="0 0 250 250" width="250" xmlns="http://www.w3.org/2000/svg" xmlns:xlink="http://www.w3.org/1999/xlink"><clipPath id="a"><path d="m124.972656 0c69.085938 0 125.027344 55.941406 125.027344 124.972656 0 69.085938-55.941406 125.027344-125.027344 125.027344-69.03125 0-124.972656-55.941406-124.972656-125.027344 0-69.03125 55.941406-124.972656 124.972656-124.972656zm0 0"/></clipPath><path d="m124.972656 0c69.085938 0 125.027344 55.941406 125.027344 124.972656 0 69.085938-55.941406 125.027344-125.027344 125.027344-69.03125 0-124.972656-55.941406-124.972656-125.027344 0-69.03125 55.941406-124.972656 124.972656-124.972656zm0 0" fill="#2b2a29" fill-rule="evenodd"/><g clip-path="url(#a)" clip-rule="evenodd"><path d="m0 0h250v250h-250z"/></g><path d="m249.941406 124.972656c0 69.019532-55.949218 124.96875-124.96875 124.96875-69.019531 0-124.972656-55.949218-124.972656-124.96875 0-69.019531 55.953125-124.972656 124.972656-124.972656 69.019532 0 124.96875 55.953125 124.96875 124.972656zm0 0" fill-rule="evenodd"/><g fill="#35ffe5"><path d="m124.972656 9.632812c31.890625 0 60.726563 12.917969 81.601563 33.792969s33.792969 49.710938 33.792969 81.546875c0 31.890625-12.917969 60.726563-33.792969 81.601563s-49.710938 33.792969-81.601563 33.792969c-31.835937 0-60.671875-12.917969-81.546875-33.792969s-33.792969-49.710938-33.792969-81.601563c0-31.835937 12.917969-60.671875 33.792969-81.546875s49.710938-33.792969 81.546875-33.792969zm75.488282 39.90625c-19.320313-19.320312-46.019532-31.257812-75.488282-31.257812-29.414062 0-56.113281 11.9375-75.433594 31.257812-19.320312 19.320313-31.257812 46.019532-31.257812 75.433594 0 29.46875 11.9375 56.167969 31.257812 75.488282 19.320313 19.261718 46.019532 31.257812 75.433594 31.257812 29.46875 0 56.167969-11.996094 75.488282-31.257812 19.261718-19.320313 31.257812-46.019532 31.257812-75.488282 0-29.414062-11.996094-56.113281-31.257812-75.433594zm0 0"/><path d="m96.019531 65.800781h88.179688v40.945313h-111.765625v15.976562h27.507812v54.84375h15.917969v-27.449218h55.824219v-15.976563h-49.367188v-12.457031h61.882813v40.945312h-55.882813v27.394532h-40.886718v-54.84375h-27.453126v-40.945313h111.707032v-15.976563h-75.664063zm0 0"/></g></svg>

<!-- Creator: CorelDRAW X7 -->
<svg xmlns="http://www.w3.org/2000/svg" xmlns:xlink="http://www.w3.org/1999/xlink" width="250px" height="250px" viewBox="0 0 250 250" version="1.1">
<defs>
<clipPath id="clip1">
  <path d="M 124.972656 0 C 194.058594 0 250 55.941406 250 124.972656 C 250 194.058594 194.058594 250 124.972656 250 C 55.941406 250 0 194.058594 0 124.972656 C 0 55.941406 55.941406 0 124.972656 0 Z M 124.972656 0 "/>
</clipPath>
</defs>
<g id="surface1">
<path style=" stroke:none;fill-rule:evenodd;fill:rgb(16.862746%,16.470589%,16.078432%);fill-opacity:1;" d="M 124.972656 0 C 194.058594 0 250 55.941406 250 124.972656 C 250 194.058594 194.058594 250 124.972656 250 C 55.941406 250 0 194.058594 0 124.972656 C 0 55.941406 55.941406 0 124.972656 0 Z M 124.972656 0 "/>
<g clip-path="url(#clip1)" clip-rule="evenodd">
<rect x="0" y="0" width="250" height="250" style="fill:rgb(0%,0%,0%);fill-opacity:1;stroke:none;"/>
</g>
<path style=" stroke:none;fill-rule:evenodd;fill:rgb(0%,0%,0%);fill-opacity:1;" d="M 249.941406 124.972656 C 249.941406 193.992188 193.992188 249.941406 124.972656 249.941406 C 55.953125 249.941406 0 193.992188 0 124.972656 C 0 55.953125 55.953125 0 124.972656 0 C 193.992188 0 249.941406 55.953125 249.941406 124.972656 Z M 249.941406 124.972656 "/>
<path style=" stroke:none;fill-rule:nonzero;fill:rgb(20.784314%,100%,89.803922%);fill-opacity:1;" d="M 124.972656 9.632812 C 156.863281 9.632812 185.699219 22.550781 206.574219 43.425781 C 227.449219 64.300781 240.367188 93.136719 240.367188 124.972656 C 240.367188 156.863281 227.449219 185.699219 206.574219 206.574219 C 185.699219 227.449219 156.863281 240.367188 124.972656 240.367188 C 93.136719 240.367188 64.300781 227.449219 43.425781 206.574219 C 22.550781 185.699219 9.632812 156.863281 9.632812 124.972656 C 9.632812 93.136719 22.550781 64.300781 43.425781 43.425781 C 64.300781 22.550781 93.136719 9.632812 124.972656 9.632812 Z M 200.460938 49.539062 C 181.140625 30.21875 154.441406 18.28125 124.972656 18.28125 C 95.558594 18.28125 68.859375 30.21875 49.539062 49.539062 C 30.21875 68.859375 18.28125 95.558594 18.28125 124.972656 C 18.28125 154.441406 30.21875 181.140625 49.539062 200.460938 C 68.859375 219.722656 95.558594 231.71875 124.972656 231.71875 C 154.441406 231.71875 181.140625 219.722656 200.460938 200.460938 C 219.722656 181.140625 231.71875 154.441406 231.71875 124.972656 C 231.71875 95.558594 219.722656 68.859375 200.460938 49.539062 Z M 200.460938 49.539062 "/>
<path style=" stroke:none;fill-rule:nonzero;fill:rgb(20.784314%,100%,89.803922%);fill-opacity:1;" d="M 96.019531 65.800781 L 184.199219 65.800781 L 184.199219 106.746094 L 72.433594 106.746094 L 72.433594 122.722656 L 99.941406 122.722656 L 99.941406 177.566406 L 115.859375 177.566406 L 115.859375 150.117188 L 171.683594 150.117188 L 171.683594 134.140625 L 122.316406 134.140625 L 122.316406 121.683594 L 184.199219 121.683594 L 184.199219 162.628906 L 128.316406 162.628906 L 128.316406 190.023438 L 87.429688 190.023438 L 87.429688 135.179688 L 59.976562 135.179688 L 59.976562 94.234375 L 171.683594 94.234375 L 171.683594 78.257812 L 96.019531 78.257812 Z M 96.019531 65.800781 "/>
</g>
</svg>
